X:1
T:Title
%%score ( 1 2 ) ( 3 4 )
L:1/8
Q:1/4=140
M:9/8
K:F
V:1 treble nm="Choir Aahs, Staff"
V:2 treble 
V:3 bass nm="Choir Aahs, Staff-1"
V:4 bass 
V:1
 CF[FA] [Fc]3 [FA]3 | .A3 z3 z3 | CE[EG] [GB]3- [GB]3/2 z/ [Bd] | [Bd][Ac][GB] [FA]6 | %4
w: By~James~H.~Fillmore * * * *||||
 CF[FA] [Fc]3 [FA]3 | .A3 z3 z3 | [DB][Ec][Fd] [Fc]3- [Fc]3/2 z/ [FA] | [EA]2 [EG] [CF]6 | %8
w: ||||
 z3 G3 G3 | z3 A3 A3 | z3 B6 | .B3 z3 z3 | [Ac][_A=B][=Ac] [Af]3 [Ac]3 | [Ac][GB][FA] [Fd]3 [DB]3 | %14
w: ||||||
 [DB][Fc][Fd] [Fc]3- [Fc]3/2 z/ [FA] | [EA]2 [EG] [CF]6 |] %16
w: ||
V:2
 x9 | F-[FG][CF] [FA]3 [EG]3 | x9 | x9 | x9 | F-[FB][Fc] [Fd]3 [DB]3 | x9 | x9 | FEF E2 E E2 E | %9
 GFG F2 F F2 F | AGA F2 F F2 [FB] | F-[Fc][Fd] [Fd]3 [Fc]3 | x9 | x9 | x9 | x9 |] %16
V:3
 [F,A,]2 [F,C] [F,A,]3 [F,C]3 | CB,[F,A,] [C,C]3 [C,C]3 | %2
 C,-[C,G,][C,C] [C,C]3- [C,C]3/2 z/ [C,C] | C-[D,C][E,C] [F,C]6 | [F,A,]2 [F,C] [F,A,]3 [F,C]3 | %5
 CB,[F,A,] [B,,B,]3 [B,,F,]3 | [B,,F,]2 [B,,B,] [C,A,]3- [C,A,]3/2 z/ [C,C] | %7
 [C,C]2 [C,B,] [F,A,]6 | z3 [C,C]2 [C,C] [C,C]2 [C,C] | z3 [F,C]2 [F,C] [F,C]2 [F,C] | %10
 z3 [D,B,]2 [D,B,] [D,B,]2 [D,B,] | [D,B,][C,A,][B,,B,] [F,B,]3 [F,A,]3 | %12
 z3 [F,C]2 [F,C] [F,A,]2 [F,A,] | z3 [B,,B,]2 [B,,B,] [B,,F,]2 [B,,F,] | %14
 z3 [C,A,]2 [C,A,] [C,A,]2 [C,C] | [C,C]2 [C,B,] [F,A,]6 |] %16
V:4
 x9 | .F,3 z3 z3 | .E,3 z3 z3 | .C,3 z3 z3 | x9 | .F,3 z3 z3 | x9 | x9 | x9 | x9 | x9 | x9 | x9 | %13
 x9 | x9 | x9 |] %16

